Newaita-dark/.LP/24/network-wired-secure.svg

<?xml version="1.0" encoding="UTF-8"?>
<svg xmlns="http://www.w3.org/2000/svg" xmlns:xlink="http://www.w3.org/1999/xlink" width="24pt" height="24pt" viewBox="0 0 24 24" version="1.1">
<g id="surface1">
<path style=" stroke:none;fill-rule:nonzero;fill:rgb(25.882354%,25.882354%,25.882354%);fill-opacity:1;" d="M 3.96875 3.660156 C 2.871094 3.660156 1.984375 4.546875 1.984375 5.644531 L 1.984375 16.558594 C 1.984375 17.660156 2.871094 18.542969 3.96875 18.542969 L 4.960938 18.542969 L 4.960938 18.625 C 4.960938 19.679688 5.847656 20.527344 6.945312 20.527344 L 13.394531 20.527344 L 13.394531 18.542969 L 7.9375 18.542969 C 7.386719 18.542969 6.945312 18.101562 6.945312 17.550781 L 6.945312 16.558594 L 4.960938 16.558594 C 4.410156 16.558594 3.96875 16.117188 3.96875 15.566406 L 3.96875 6.636719 C 3.96875 6.085938 4.410156 5.644531 4.960938 5.644531 L 18.851562 5.644531 C 19.402344 5.644531 19.84375 6.085938 19.84375 6.636719 L 19.84375 12.652344 C 20 12.613281 20.167969 12.589844 20.339844 12.589844 L 21.832031 12.589844 L 21.832031 5.644531 C 21.832031 4.546875 20.945312 3.660156 19.84375 3.660156 Z M 3.96875 3.660156 "/>
<path style=" stroke:none;fill-rule:nonzero;fill:rgb(100%,65.490198%,14.901961%);fill-opacity:1;" d="M 10.914062 5.644531 L 10.914062 6.636719 C 10.914062 7.1875 11.347656 7.628906 11.886719 7.628906 L 11.925781 7.628906 C 12.464844 7.628906 12.898438 7.1875 12.898438 6.636719 L 12.898438 5.644531 Z M 10.914062 5.644531 "/>
<path style=" stroke:none;fill-rule:nonzero;fill:rgb(100%,65.490198%,14.901961%);fill-opacity:1;" d="M 7.9375 5.644531 L 7.9375 6.636719 C 7.9375 7.1875 8.371094 7.628906 8.910156 7.628906 L 8.949219 7.628906 C 9.488281 7.628906 9.921875 7.1875 9.921875 6.636719 L 9.921875 5.644531 Z M 7.9375 5.644531 "/>
<path style=" stroke:none;fill-rule:nonzero;fill:rgb(100%,65.490198%,14.901961%);fill-opacity:1;" d="M 4.960938 5.644531 L 4.960938 6.636719 C 4.960938 7.1875 5.394531 7.628906 5.933594 7.628906 L 5.972656 7.628906 C 6.511719 7.628906 6.945312 7.1875 6.945312 6.636719 L 6.945312 5.644531 Z M 4.960938 5.644531 "/>
<path style=" stroke:none;fill-rule:nonzero;fill:rgb(100%,65.490198%,14.901961%);fill-opacity:1;" d="M 13.890625 5.644531 L 13.890625 6.636719 C 13.890625 7.1875 14.324219 7.628906 14.863281 7.628906 L 14.902344 7.628906 C 15.441406 7.628906 15.875 7.1875 15.875 6.636719 L 15.875 5.644531 Z M 13.890625 5.644531 "/>
<path style=" stroke:none;fill-rule:nonzero;fill:rgb(100%,65.490198%,14.901961%);fill-opacity:1;" d="M 16.867188 5.644531 L 16.867188 6.636719 C 16.867188 7.1875 17.300781 7.628906 17.839844 7.628906 L 17.882812 7.628906 C 18.417969 7.628906 18.851562 7.1875 18.851562 6.636719 L 18.851562 5.644531 Z M 16.867188 5.644531 "/>
<path style=" stroke:none;fill-rule:nonzero;fill:rgb(40.000001%,73.333335%,41.568628%);fill-opacity:1;" d="M 17.617188 14.121094 C 17.066406 14.121094 16.625 14.5625 16.625 15.113281 L 16.625 18.089844 C 16.074219 18.089844 15.632812 18.53125 15.632812 19.082031 L 15.632812 21.066406 C 15.632812 21.617188 16.074219 22.058594 16.625 22.058594 L 21.089844 22.058594 C 21.640625 22.058594 22.082031 21.617188 22.082031 21.066406 L 22.082031 19.082031 C 22.082031 18.53125 21.640625 18.089844 21.089844 18.089844 L 21.089844 15.113281 C 21.089844 14.5625 20.648438 14.121094 20.097656 14.121094 Z M 18.113281 15.113281 L 19.601562 15.113281 C 19.875 15.113281 20.097656 15.335938 20.097656 15.609375 L 20.097656 18.089844 L 17.617188 18.089844 L 17.617188 15.609375 C 17.617188 15.335938 17.835938 15.113281 18.113281 15.113281 Z M 18.855469 19.082031 C 19.269531 19.082031 19.601562 19.414062 19.601562 19.824219 C 19.601562 20.152344 19.394531 20.429688 19.101562 20.53125 C 19.105469 20.542969 19.105469 20.554688 19.105469 20.570312 L 19.105469 21.316406 C 19.105469 21.453125 18.996094 21.5625 18.855469 21.5625 C 18.71875 21.5625 18.609375 21.453125 18.609375 21.316406 L 18.609375 20.570312 C 18.609375 20.554688 18.609375 20.542969 18.613281 20.53125 C 18.320312 20.429688 18.113281 20.152344 18.113281 19.824219 C 18.113281 19.414062 18.445312 19.082031 18.855469 19.082031 Z M 18.855469 19.082031 "/>
</g>
</svg>

<svg xmlns="http://www.w3.org/2000/svg" width="32" height="32" viewBox="0 0 24 24"><path d="M3.969 3.66a1.982 1.982 0 0 0-1.985 1.985v10.914a1.98 1.98 0 0 0 1.985 1.984h.992v.082c0 1.055.887 1.902 1.984 1.902h6.45v-1.984H7.938a.989.989 0 0 1-.993-.992v-.992H4.961a.989.989 0 0 1-.992-.993v-8.93c0-.55.441-.991.992-.991h13.89c.551 0 .993.44.993.992v6.015c.156-.039.324-.062.496-.062h1.492V5.645a1.983 1.983 0 0 0-1.988-1.985zm0 0" fill="#424242"/><path d="M10.914 5.645v.992c0 .55.434.992.973.992h.039a.98.98 0 0 0 .972-.992v-.992zm0 0M7.938 5.645v.992c0 .55.433.992.972.992h.04a.98.98 0 0 0 .972-.992v-.992zm0 0M4.96 5.645v.992c0 .55.435.992.974.992h.039a.98.98 0 0 0 .972-.992v-.992zm0 0M13.89 5.645v.992c0 .55.434.992.973.992h.04a.98.98 0 0 0 .972-.992v-.992zm0 0M16.867 5.645v.992c0 .55.434.992.973.992h.043a.979.979 0 0 0 .969-.992v-.992zm0 0" fill="#ffa726"/><path d="M17.617 14.121a.989.989 0 0 0-.992.992v2.977a.989.989 0 0 0-.992.992v1.984c0 .551.441.993.992.993h4.465c.55 0 .992-.442.992-.993v-1.984a.989.989 0 0 0-.992-.992v-2.977a.989.989 0 0 0-.992-.992zm.496.992h1.489c.273 0 .496.223.496.496v2.48h-2.48v-2.48c0-.273.218-.496.495-.496zm.742 3.969a.745.745 0 1 1 .246 1.45.12.12 0 0 1 .004.038v.746c0 .137-.109.247-.25.247a.245.245 0 0 1-.246-.247v-.746c0-.015 0-.027.004-.039a.745.745 0 0 1 .242-1.449zm0 0" fill="#66bb6a"/></svg>
